brand-assets/vite+/vite+-logo-mono-dark.svg

<svg width="321" height="47" viewBox="0 0 321 47" fill="none" xmlns="http://www.w3.org/2000/svg">
<path d="M28.5 33.3469L40.2617 0.775635H56.3525L38.5166 46.0129H17.8369L0 0.775635H16.5439L28.5 33.3469ZM77.2275 46.0129H61.7178V0.775635H77.2275V46.0129ZM133.559 11.8909H116.175V46.0129H100.665V11.8909H83.2803V0.775635H133.559V11.8909ZM184.268 11.762H155.122V17.8362H183.815V28.4993H155.122V35.0266H185.107V46.0129H139.612V0.775635H184.268V11.762ZM218.37 17.8362H235.755V28.4993H218.37V46.0129H207.255V28.4993H189.871V17.8362H207.255V0.775635H218.37V17.8362Z" fill="#08060E"/>
<path d="M284.425 45.7093C283.761 46.5538 282.404 46.0841 282.404 45.0114V34.708C282.404 33.4586 281.392 32.4461 280.142 32.4461H268.766C267.846 32.4461 267.31 31.4057 267.846 30.6582L275.325 20.1867C276.396 18.6896 275.325 16.6087 273.484 16.6087H259.716C258.796 16.6087 258.26 15.5682 258.796 14.8207L268.492 1.24516C268.706 0.947882 269.048 0.77124 269.412 0.77124H298.306C299.226 0.77124 299.762 1.8117 299.226 2.5592L291.747 13.0306C290.676 14.5278 291.747 16.6087 293.588 16.6087H304.965C305.908 16.6087 306.438 17.6965 305.854 18.4397L284.427 45.7115L284.425 45.7093Z" fill="#08060E"/>
<mask id="mask0_4031_15433" style="mask-type:alpha" maskUnits="userSpaceOnUse" x="258" y="0" width="49" height="47">
<path d="M284.425 45.7093C283.761 46.5538 282.404 46.0841 282.404 45.0114V34.708C282.404 33.4586 281.392 32.4461 280.142 32.4461H268.766C267.846 32.4461 267.31 31.4057 267.846 30.6582L275.325 20.1867C276.396 18.6896 275.325 16.6087 273.484 16.6087H259.716C258.796 16.6087 258.26 15.5682 258.796 14.8207L268.492 1.24516C268.706 0.947882 269.048 0.77124 269.412 0.77124H298.306C299.226 0.77124 299.762 1.8117 299.226 2.5592L291.747 13.0306C290.676 14.5278 291.747 16.6087 293.588 16.6087H304.965C305.908 16.6087 306.438 17.6965 305.854 18.4397L284.427 45.7115L284.425 45.7093Z" fill="#833BFF"/>
</mask>
<g mask="url(#mask0_4031_15433)">
<g filter="url(#filter0_f_4031_15433)">
<ellipse cx="5.50802" cy="14.7043" rx="5.50802" ry="14.7043" transform="matrix(0.00324134 0.999995 0.999995 -0.00324134 254.01 32.2867)" fill="#08060E"/>
</g>
<g filter="url(#filter1_f_4031_15433)">
<ellipse cx="10.3995" cy="29.8514" rx="10.3995" ry="29.8514" transform="matrix(0.00324134 0.999995 0.999995 -0.00324134 219.15 8.65381)" fill="#08060E"/>
</g>
<g filter="url(#filter2_f_4031_15433)">
<ellipse cx="5.50802" cy="30.4868" rx="5.50802" ry="30.4868" transform="matrix(0.00324134 0.999995 0.999995 -0.00324134 218.011 12.0923)" fill="#08060E"/>
</g>
<g filter="url(#filter3_f_4031_15433)">
<ellipse cx="5.50802" cy="30.5986" rx="5.50802" ry="30.5986" transform="matrix(0.00324134 0.999995 0.999995 -0.00324134 222.607 30.0916)" fill="#08060E"/>
</g>
<g filter="url(#filter4_f_4031_15433)">
<ellipse cx="5.50802" cy="30.5986" rx="5.50802" ry="30.5986" transform="matrix(0.00324134 0.999995 0.999995 -0.00324134 224.139 31.2404)" fill="#08060E"/>
</g>
<g filter="url(#filter5_f_4031_15433)">
<ellipse cx="14.0715" cy="22.0783" rx="14.0715" ry="22.0783" transform="matrix(0.0584509 -0.99829 -0.99829 -0.0584509 332.828 27.6344)" fill="#08060E"/>
</g>
<g filter="url(#filter6_f_4031_15433)">
<ellipse cx="3.47034" cy="21.5008" rx="3.47034" ry="21.5008" transform="matrix(-0.0172986 -0.99985 -0.99985 0.0172986 334.273 18.8337)" fill="#08060E"/>
</g>
<g filter="url(#filter7_f_4031_15433)">
<ellipse cx="3.47034" cy="21.5008" rx="3.47034" ry="21.5008" transform="matrix(-0.0172986 -0.99985 -0.99985 0.0172986 334.273 18.8337)" fill="#08060E"/>
</g>
<g filter="url(#filter8_f_4031_15433)">
<ellipse cx="258.865" cy="9.74259" rx="4.40666" ry="29.1076" transform="rotate(39.5103 258.865 9.74259)" fill="#08060E"/>
</g>
<g filter="url(#filter9_f_4031_15433)">
<ellipse cx="306.002" cy="-5.32056" rx="4.40666" ry="29.1076" transform="rotate(37.8923 306.002 -5.32056)" fill="#08060E"/>
</g>
<g filter="url(#filter10_f_4031_15433)">
<ellipse cx="299.353" cy="10.5902" rx="8.28097" ry="12.4925" transform="rotate(37.8923 299.353 10.5902)" fill="#08060E"/>
</g>
<g filter="url(#filter11_f_4031_15433)">
<ellipse cx="256.6" cy="39.1031" rx="4.40666" ry="29.1076" transform="rotate(37.8923 256.6 39.1031)" fill="#08060E"/>
</g>
<g filter="url(#filter12_f_4031_15433)">
<ellipse cx="256.6" cy="39.1031" rx="4.40666" ry="29.1076" transform="rotate(37.8923 256.6 39.1031)" fill="#08060E"/>
</g>
<g filter="url(#filter13_f_4031_15433)">
<ellipse cx="293.912" cy="30.5085" rx="4.6825" ry="29.1076" transform="rotate(37.8923 293.912 30.5085)" fill="#08060E"/>
</g>
<g filter="url(#filter14_f_4031_15433)">
<ellipse cx="298.386" cy="33.7724" rx="8.04191" ry="21.0659" transform="rotate(37.8923 298.386 33.7724)" fill="#08060E"/>
</g>
</g>
<path d="M251.193 0.00012207C241.995 13.1664 241.941 33.575 251.193 46.7886H257.408C248.158 33.575 248.211 13.1664 257.408 0.00012207H251.193Z" fill="#08060E"/>
<path d="M313.617 0.00012207H307.402C316.6 13.1664 316.654 33.575 307.402 46.7886H313.617C322.867 33.575 322.813 13.1664 313.617 0.00012207Z" fill="#08060E"/>
<defs>
<filter id="filter0_f_4031_15433" x="238.71" y="16.9204" width="60.0452" height="41.6534" filterUnits="userSpaceOnUse" color-interpolation-filters="sRGB">
<feFlood flood-opacity="0" result="BackgroundImageFix"/>
<feBlend mode="normal" in="SourceGraphic" in2="BackgroundImageFix" result="shape"/>
<feGaussianBlur stdDeviation="7.65926" result="effect1_foregroundBlur_4031_15433"/>
</filter>
<filter id="filter1_f_4031_15433" x="203.866" y="-6.76188" width="90.3397" height="51.4367" filterUnits="userSpaceOnUse" color-interpolation-filters="sRGB">
<feFlood flood-opacity="0" result="BackgroundImageFix"/>
<feBlend mode="normal" in="SourceGraphic" in2="BackgroundImageFix" result="shape"/>
<feGaussianBlur stdDeviation="7.65926" result="effect1_foregroundBlur_4031_15433"/>
</filter>
<filter id="filter2_f_4031_15433" x="208.838" y="2.80144" width="79.3554" height="29.4" filterUnits="userSpaceOnUse" color-interpolation-filters="sRGB">
<feFlood flood-opacity="0" result="BackgroundImageFix"/>
<feBlend mode="normal" in="SourceGraphic" in2="BackgroundImageFix" result="shape"/>
<feGaussianBlur stdDeviation="4.59556" result="effect1_foregroundBlur_4031_15433"/>
</filter>
<filter id="filter3_f_4031_15433" x="213.434" y="20.8003" width="79.579" height="29.4" filterUnits="userSpaceOnUse" color-interpolation-filters="sRGB">
<feFlood flood-opacity="0" result="BackgroundImageFix"/>
<feBlend mode="normal" in="SourceGraphic" in2="BackgroundImageFix" result="shape"/>
<feGaussianBlur stdDeviation="4.59556" result="effect1_foregroundBlur_4031_15433"/>
</filter>
<filter id="filter4_f_4031_15433" x="214.966" y="21.9491" width="79.579" height="29.4" filterUnits="userSpaceOnUse" color-interpolation-filters="sRGB">
<feFlood flood-opacity="0" result="BackgroundImageFix"/>
<feBlend mode="normal" in="SourceGraphic" in2="BackgroundImageFix" result="shape"/>
<feGaussianBlur stdDeviation="4.59556" result="effect1_foregroundBlur_4031_15433"/>
</filter>
<filter id="filter5_f_4031_15433" x="274.235" y="-17.1296" width="74.7493" height="58.852" filterUnits="userSpaceOnUse" color-interpolation-filters="sRGB">
<feFlood flood-opacity="0" result="BackgroundImageFix"/>
<feBlend mode="normal" in="SourceGraphic" in2="BackgroundImageFix" result="shape"/>
<feGaussianBlur stdDeviation="7.65926" result="effect1_foregroundBlur_4031_15433"/>
</filter>
<filter id="filter6_f_4031_15433" x="282.027" y="3.05474" width="61.3773" height="25.3622" filterUnits="userSpaceOnUse" color-interpolation-filters="sRGB">
<feFlood flood-opacity="0" result="BackgroundImageFix"/>
<feBlend mode="normal" in="SourceGraphic" in2="BackgroundImageFix" result="shape"/>
<feGaussianBlur stdDeviation="4.59556" result="effect1_foregroundBlur_4031_15433"/>
</filter>
<filter id="filter7_f_4031_15433" x="282.027" y="3.05474" width="61.3773" height="25.3622" filterUnits="userSpaceOnUse" color-interpolation-filters="sRGB">
<feFlood flood-opacity="0" result="BackgroundImageFix"/>
<feBlend mode="normal" in="SourceGraphic" in2="BackgroundImageFix" result="shape"/>
<feGaussianBlur stdDeviation="4.59556" result="effect1_foregroundBlur_4031_15433"/>
</filter>
<filter id="filter8_f_4031_15433" x="230.843" y="-22.0821" width="56.0453" height="63.6493" filterUnits="userSpaceOnUse" color-interpolation-filters="sRGB">
<feFlood flood-opacity="0" result="BackgroundImageFix"/>
<feBlend mode="normal" in="SourceGraphic" in2="BackgroundImageFix" result="shape"/>
<feGaussianBlur stdDeviation="4.59556" result="effect1_foregroundBlur_4031_15433"/>
</filter>
<filter id="filter9_f_4031_15433" x="278.595" y="-37.6435" width="54.8139" height="64.6459" filterUnits="userSpaceOnUse" color-interpolation-filters="sRGB">
<feFlood flood-opacity="0" result="BackgroundImageFix"/>
<feBlend mode="normal" in="SourceGraphic" in2="BackgroundImageFix" result="shape"/>
<feGaussianBlur stdDeviation="4.59556" result="effect1_foregroundBlur_4031_15433"/>
</filter>
<filter id="filter10_f_4031_15433" x="280.083" y="-9.69648" width="38.5395" height="40.5734" filterUnits="userSpaceOnUse" color-interpolation-filters="sRGB">
<feFlood flood-opacity="0" result="BackgroundImageFix"/>
<feBlend mode="normal" in="SourceGraphic" in2="BackgroundImageFix" result="shape"/>
<feGaussianBlur stdDeviation="4.59556" result="effect1_foregroundBlur_4031_15433"/>
</filter>
<filter id="filter11_f_4031_15433" x="229.193" y="6.7802" width="54.8139" height="64.6459" filterUnits="userSpaceOnUse" color-interpolation-filters="sRGB">
<feFlood flood-opacity="0" result="BackgroundImageFix"/>
<feBlend mode="normal" in="SourceGraphic" in2="BackgroundImageFix" result="shape"/>
<feGaussianBlur stdDeviation="4.59556" result="effect1_foregroundBlur_4031_15433"/>
</filter>
<filter id="filter12_f_4031_15433" x="229.193" y="6.7802" width="54.8139" height="64.6459" filterUnits="userSpaceOnUse" color-interpolation-filters="sRGB">
<feFlood flood-opacity="0" result="BackgroundImageFix"/>
<feBlend mode="normal" in="SourceGraphic" in2="BackgroundImageFix" result="shape"/>
<feGaussianBlur stdDeviation="4.59556" result="effect1_foregroundBlur_4031_15433"/>
</filter>
<filter id="filter13_f_4031_15433" x="266.462" y="-1.83516" width="54.8998" height="64.6873" filterUnits="userSpaceOnUse" color-interpolation-filters="sRGB">
<feFlood flood-opacity="0" result="BackgroundImageFix"/>
<feBlend mode="normal" in="SourceGraphic" in2="BackgroundImageFix" result="shape"/>
<feGaussianBlur stdDeviation="4.59556" result="effect1_foregroundBlur_4031_15433"/>
</filter>
<filter id="filter14_f_4031_15433" x="274.781" y="7.23406" width="47.2104" height="53.0768" filterUnits="userSpaceOnUse" color-interpolation-filters="sRGB">
<feFlood flood-opacity="0" result="BackgroundImageFix"/>
<feBlend mode="normal" in="SourceGraphic" in2="BackgroundImageFix" result="shape"/>
<feGaussianBlur stdDeviation="4.59556" result="effect1_foregroundBlur_4031_15433"/>
</filter>
</defs>
</svg>

<svg xmlns="http://www.w3.org/2000/svg" width="321" height="47" fill="none" viewBox="0 0 321 47"><path fill="#08060e" d="M28.5 33.347 40.262.776h16.09L38.518 46.013h-20.68L0 .776h16.544zm48.728 12.666h-15.51V.776h15.51zm56.331-34.122h-17.384v34.122h-15.51V11.89H83.28V.776h50.279zm50.709-.129h-29.146v6.074h28.693V28.5h-28.693v6.528h29.985v10.986h-45.495V.776h44.656zm34.102 6.074h17.385V28.5H218.37v17.514h-11.115V28.499h-17.384V17.836h17.384V.776h11.115zm66.055 27.874c-.664.844-2.021.374-2.021-.699V34.708a2.26 2.26 0 0 0-2.262-2.262h-11.376c-.92 0-1.456-1.04-.92-1.788l7.479-10.471c1.071-1.497 0-3.578-1.841-3.578h-13.768c-.92 0-1.456-1.04-.92-1.788l9.696-13.576c.214-.297.556-.474.92-.474h28.894c.92 0 1.456 1.04.92 1.788l-7.479 10.472c-1.071 1.497 0 3.578 1.841 3.578h11.377a1.13 1.13 0 0 1 .889 1.83l-21.427 27.273z"/><mask id="a" width="49" height="47" x="258" y="0" maskUnits="userSpaceOnUse" style="mask-type:alpha"><path fill="#833bff" d="M284.425 45.71c-.664.844-2.021.374-2.021-.699V34.708a2.26 2.26 0 0 0-2.262-2.262h-11.376c-.92 0-1.456-1.04-.92-1.788l7.479-10.471c1.071-1.497 0-3.578-1.841-3.578h-13.768c-.92 0-1.456-1.04-.92-1.788l9.696-13.576c.214-.297.556-.474.92-.474h28.894c.92 0 1.456 1.04.92 1.788l-7.479 10.472c-1.071 1.497 0 3.578 1.841 3.578h11.377a1.13 1.13 0 0 1 .889 1.83l-21.427 27.273z"/></mask><g mask="url(#a)"><g filter="url(#b)"><ellipse cx="5.508" cy="14.704" fill="#08060e" rx="5.508" ry="14.704" transform="rotate(89.814 110.81 143.56)scale(1 -1)"/></g><g filter="url(#c)"><ellipse cx="10.399" cy="29.851" fill="#08060e" rx="10.399" ry="29.851" transform="matrix(.00324 1 1 -.00324 219.15 8.654)"/></g><g filter="url(#d)"><ellipse cx="5.508" cy="30.487" fill="#08060e" rx="5.508" ry="30.487" transform="rotate(89.814 102.94 115.406)scale(1 -1)"/></g><g filter="url(#e)"><ellipse cx="5.508" cy="30.599" fill="#08060e" rx="5.508" ry="30.599" transform="rotate(89.814 96.209 126.71)scale(1 -1)"/></g><g filter="url(#f)"><ellipse cx="5.508" cy="30.599" fill="#08060e" rx="5.508" ry="30.599" transform="rotate(89.814 96.4 128.055)scale(1 -1)"/></g><g filter="url(#g)"><ellipse cx="14.072" cy="22.078" fill="#08060e" rx="14.072" ry="22.078" transform="rotate(93.35 153.382 170.772)scale(-1 1)"/></g><g filter="url(#h)"><ellipse cx="3.47" cy="21.501" fill="#08060e" rx="3.47" ry="21.501" transform="rotate(89.009 157.555 179.47)scale(-1 1)"/></g><g filter="url(#i)"><ellipse cx="3.47" cy="21.501" fill="#08060e" rx="3.47" ry="21.501" transform="rotate(89.009 157.555 179.47)scale(-1 1)"/></g><g filter="url(#j)"><ellipse cx="258.865" cy="9.743" fill="#08060e" rx="4.407" ry="29.108" transform="rotate(39.51 258.865 9.743)"/></g><g filter="url(#k)"><ellipse cx="306.002" cy="-5.321" fill="#08060e" rx="4.407" ry="29.108" transform="rotate(37.892 306.002 -5.32)"/></g><g filter="url(#l)"><ellipse cx="299.353" cy="10.59" fill="#08060e" rx="8.281" ry="12.492" transform="rotate(37.892 299.353 10.59)"/></g><g filter="url(#m)"><ellipse cx="256.6" cy="39.103" fill="#08060e" rx="4.407" ry="29.108" transform="rotate(37.892 256.6 39.103)"/></g><g filter="url(#n)"><ellipse cx="256.6" cy="39.103" fill="#08060e" rx="4.407" ry="29.108" transform="rotate(37.892 256.6 39.103)"/></g><g filter="url(#o)"><ellipse cx="293.912" cy="30.509" fill="#08060e" rx="4.683" ry="29.108" transform="rotate(37.892 293.912 30.509)"/></g><g filter="url(#p)"><ellipse cx="298.386" cy="33.772" fill="#08060e" rx="8.042" ry="21.066" transform="rotate(37.892 298.386 33.772)"/></g></g><path fill="#08060e" d="M251.193 0c-9.198 13.166-9.252 33.575 0 46.789h6.215c-9.25-13.214-9.197-33.623 0-46.789zm62.424 0h-6.215c9.198 13.166 9.252 33.575 0 46.789h6.215c9.25-13.214 9.196-33.623 0-46.789"/><defs><filter id="b" width="60.045" height="41.653" x="238.71" y="16.92" color-interpolation-filters="sRGB" filterUnits="userSpaceOnUse"><feFlood flood-opacity="0" result="BackgroundImageFix"/><feBlend in="SourceGraphic" in2="BackgroundImageFix" result="shape"/><feGaussianBlur result="effect1_foregroundBlur_4031_15433" stdDeviation="7.659"/></filter><filter id="c" width="90.34" height="51.437" x="203.866" y="-6.762" color-interpolation-filters="sRGB" filterUnits="userSpaceOnUse"><feFlood flood-opacity="0" result="BackgroundImageFix"/><feBlend in="SourceGraphic" in2="BackgroundImageFix" result="shape"/><feGaussianBlur result="effect1_foregroundBlur_4031_15433" stdDeviation="7.659"/></filter><filter id="d" width="79.355" height="29.4" x="208.838" y="2.801" color-interpolation-filters="sRGB" filterUnits="userSpaceOnUse"><feFlood flood-opacity="0" result="BackgroundImageFix"/><feBlend in="SourceGraphic" in2="BackgroundImageFix" result="shape"/><feGaussianBlur result="effect1_foregroundBlur_4031_15433" stdDeviation="4.596"/></filter><filter id="e" width="79.579" height="29.4" x="213.434" y="20.8" color-interpolation-filters="sRGB" filterUnits="userSpaceOnUse"><feFlood flood-opacity="0" result="BackgroundImageFix"/><feBlend in="SourceGraphic" in2="BackgroundImageFix" result="shape"/><feGaussianBlur result="effect1_foregroundBlur_4031_15433" stdDeviation="4.596"/></filter><filter id="f" width="79.579" height="29.4" x="214.966" y="21.949" color-interpolation-filters="sRGB" filterUnits="userSpaceOnUse"><feFlood flood-opacity="0" result="BackgroundImageFix"/><feBlend in="SourceGraphic" in2="BackgroundImageFix" result="shape"/><feGaussianBlur result="effect1_foregroundBlur_4031_15433" stdDeviation="4.596"/></filter><filter id="g" width="74.749" height="58.852" x="274.235" y="-17.13" color-interpolation-filters="sRGB" filterUnits="userSpaceOnUse"><feFlood flood-opacity="0" result="BackgroundImageFix"/><feBlend in="SourceGraphic" in2="BackgroundImageFix" result="shape"/><feGaussianBlur result="effect1_foregroundBlur_4031_15433" stdDeviation="7.659"/></filter><filter id="h" width="61.377" height="25.362" x="282.027" y="3.055" color-interpolation-filters="sRGB" filterUnits="userSpaceOnUse"><feFlood flood-opacity="0" result="BackgroundImageFix"/><feBlend in="SourceGraphic" in2="BackgroundImageFix" result="shape"/><feGaussianBlur result="effect1_foregroundBlur_4031_15433" stdDeviation="4.596"/></filter><filter id="i" width="61.377" height="25.362" x="282.027" y="3.055" color-interpolation-filters="sRGB" filterUnits="userSpaceOnUse"><feFlood flood-opacity="0" result="BackgroundImageFix"/><feBlend in="SourceGraphic" in2="BackgroundImageFix" result="shape"/><feGaussianBlur result="effect1_foregroundBlur_4031_15433" stdDeviation="4.596"/></filter><filter id="j" width="56.045" height="63.649" x="230.843" y="-22.082" color-interpolation-filters="sRGB" filterUnits="userSpaceOnUse"><feFlood flood-opacity="0" result="BackgroundImageFix"/><feBlend in="SourceGraphic" in2="BackgroundImageFix" result="shape"/><feGaussianBlur result="effect1_foregroundBlur_4031_15433" stdDeviation="4.596"/></filter><filter id="k" width="54.814" height="64.646" x="278.595" y="-37.644" color-interpolation-filters="sRGB" filterUnits="userSpaceOnUse"><feFlood flood-opacity="0" result="BackgroundImageFix"/><feBlend in="SourceGraphic" in2="BackgroundImageFix" result="shape"/><feGaussianBlur result="effect1_foregroundBlur_4031_15433" stdDeviation="4.596"/></filter><filter id="l" width="38.539" height="40.573" x="280.083" y="-9.696" color-interpolation-filters="sRGB" filterUnits="userSpaceOnUse"><feFlood flood-opacity="0" result="BackgroundImageFix"/><feBlend in="SourceGraphic" in2="BackgroundImageFix" result="shape"/><feGaussianBlur result="effect1_foregroundBlur_4031_15433" stdDeviation="4.596"/></filter><filter id="m" width="54.814" height="64.646" x="229.193" y="6.78" color-interpolation-filters="sRGB" filterUnits="userSpaceOnUse"><feFlood flood-opacity="0" result="BackgroundImageFix"/><feBlend in="SourceGraphic" in2="BackgroundImageFix" result="shape"/><feGaussianBlur result="effect1_foregroundBlur_4031_15433" stdDeviation="4.596"/></filter><filter id="n" width="54.814" height="64.646" x="229.193" y="6.78" color-interpolation-filters="sRGB" filterUnits="userSpaceOnUse"><feFlood flood-opacity="0" result="BackgroundImageFix"/><feBlend in="SourceGraphic" in2="BackgroundImageFix" result="shape"/><feGaussianBlur result="effect1_foregroundBlur_4031_15433" stdDeviation="4.596"/></filter><filter id="o" width="54.9" height="64.687" x="266.462" y="-1.835" color-interpolation-filters="sRGB" filterUnits="userSpaceOnUse"><feFlood flood-opacity="0" result="BackgroundImageFix"/><feBlend in="SourceGraphic" in2="BackgroundImageFix" result="shape"/><feGaussianBlur result="effect1_foregroundBlur_4031_15433" stdDeviation="4.596"/></filter><filter id="p" width="47.21" height="53.077" x="274.781" y="7.234" color-interpolation-filters="sRGB" filterUnits="userSpaceOnUse"><feFlood flood-opacity="0" result="BackgroundImageFix"/><feBlend in="SourceGraphic" in2="BackgroundImageFix" result="shape"/><feGaussianBlur result="effect1_foregroundBlur_4031_15433" stdDeviation="4.596"/></filter></defs></svg>
